assets/images/edit.svg

<svg width="15" height="16" viewBox="0 0 15 16" fill="none" xmlns="http://www.w3.org/2000/svg">
<path d="M11.5817 1.21062L4.10399 8.68838C3.81838 8.97244 3.59196 9.31033 3.43783 9.6825C3.28371 10.0547 3.20493 10.4537 3.20607 10.8565V11.6802C3.20607 11.8429 3.27069 11.9989 3.38571 12.1139C3.50073 12.2289 3.65673 12.2936 3.8194 12.2936H4.64311C5.04592 12.2947 5.44496 12.2159 5.81712 12.0618C6.18929 11.9077 6.52718 11.6812 6.81124 11.3956L14.289 3.91787C14.6474 3.55856 14.8487 3.07176 14.8487 2.56424C14.8487 2.05673 14.6474 1.56993 14.289 1.21062C13.9245 0.862178 13.4396 0.667725 12.9354 0.667725C12.4311 0.667725 11.9463 0.862178 11.5817 1.21062ZM13.4217 3.05062L5.94399 10.5284C5.59814 10.8721 5.13071 11.0656 4.64311 11.0669H4.43273V10.8565C4.43401 10.3689 4.62751 9.90148 4.97124 9.55563L12.449 2.07787C12.58 1.95272 12.7542 1.88289 12.9354 1.88289C13.1165 1.88289 13.2907 1.95272 13.4217 2.07787C13.5505 2.20699 13.6228 2.38189 13.6228 2.56424C13.6228 2.74659 13.5505 2.9215 13.4217 3.05062Z" fill="#6C757D"/>
<path d="M14.2463 6.14726C14.0837 6.14726 13.9276 6.21188 13.8126 6.3269C13.6976 6.44192 13.633 6.59792 13.633 6.76059V9.84014H11.1797C10.6917 9.84014 10.2236 10.034 9.87857 10.3791C9.53351 10.7241 9.33965 11.1921 9.33965 11.6801V14.1335H3.20632C2.71832 14.1335 2.25031 13.9396 1.90524 13.5945C1.56017 13.2495 1.36632 12.7815 1.36632 12.2935V3.7068C1.36632 3.21881 1.56017 2.75079 1.90524 2.40573C2.25031 2.06066 2.71832 1.8668 3.20632 1.8668H8.75208C8.91474 1.8668 9.07075 1.80218 9.18577 1.68716C9.30079 1.57214 9.36541 1.41614 9.36541 1.25347C9.36541 1.0908 9.30079 0.9348 9.18577 0.819778C9.07075 0.704756 8.91474 0.640137 8.75208 0.640137H3.20632C2.39328 0.641111 1.61383 0.964518 1.03893 1.53942C0.464029 2.11432 0.140622 2.89377 0.139648 3.7068L0.139648 12.2935C0.140622 13.1065 0.464029 13.886 1.03893 14.4609C1.61383 15.0358 2.39328 15.3592 3.20632 15.3601H10.1634C10.5663 15.3613 10.9654 15.2825 11.3377 15.1284C11.7099 14.9743 12.0479 14.7478 12.3321 14.4622L13.9611 12.832C14.2468 12.5479 14.4733 12.21 14.6275 11.8379C14.7817 11.4657 14.8606 11.0667 14.8597 10.6638V6.76059C14.8597 6.59792 14.795 6.44192 14.68 6.3269C14.565 6.21188 14.409 6.14726 14.2463 6.14726ZM11.4649 13.595C11.2183 13.8409 10.9065 14.0112 10.5663 14.0856V11.6801C10.5663 11.5175 10.6309 11.3615 10.746 11.2464C10.861 11.1314 11.017 11.0668 11.1797 11.0668H13.587C13.5111 11.4063 13.341 11.7175 13.0963 11.9647L11.4649 13.595Z" fill="#6C757D"/>
</svg>

<svg width="15" height="16" fill="none" xmlns="http://www.w3.org/2000/svg"><path d="M11.582 1.21 4.104 8.689a3.046 3.046 0 0 0-.898 2.168v.824a.613.613 0 0 0 .613.614h.824a3.047 3.047 0 0 0 2.168-.898l7.478-7.478a1.917 1.917 0 0 0 0-2.707 1.959 1.959 0 0 0-2.707 0Zm1.84 1.84-7.478 7.478a1.853 1.853 0 0 1-1.3.539h-.211v-.21c.001-.488.195-.956.538-1.301l7.478-7.478a.704.704 0 0 1 .973 0 .689.689 0 0 1 0 .973Z" fill="#6C757D"/><path d="M14.246 6.147a.613.613 0 0 0-.613.614v3.08H11.18a1.84 1.84 0 0 0-1.84 1.84v2.453H3.206a1.84 1.84 0 0 1-1.84-1.84V3.707a1.84 1.84 0 0 1 1.84-1.84h5.546a.613.613 0 0 0 0-1.227H3.206A3.07 3.07 0 0 0 .14 3.707v8.587a3.07 3.07 0 0 0 3.066 3.066h6.957a3.047 3.047 0 0 0 2.17-.898l1.628-1.63a3.047 3.047 0 0 0 .899-2.168V6.76a.613.613 0 0 0-.614-.614Zm-2.781 7.448a1.825 1.825 0 0 1-.899.49V11.68a.613.613 0 0 1 .614-.613h2.407a1.85 1.85 0 0 1-.49.898l-1.632 1.63Z" fill="#6C757D"/></svg>
